X:31
T: AM BRUNNEN VOR DEM THORE
N: B0518
O: Europa, Mitteleuropa, Deutschland
R: Wander - Lied
M: 3/4
L: 1/16
K: F
c2 | c6A2A2A2 | A4F4z2
F2 | G6A2B2G2 | A8z2
c2 | c6A2A2A2 | A4F4z2
F2 | G6A2(3c2B2G2 | F8z2
F2 | G6G2G2G2 | A3Bc4z2
c2 | d6c2A2F2 | G8z2
G2 | G6G2G2G2 | A3Bc4z2
c2 | f4c2A2B2G2 | c8z2
c2 | f4c2A2B2G2 | F8z2

@@@ Tune index: 2249
